deutsch/module/SimpleRiddle/resources/img/question.svg

<?xml version="1.0" encoding="UTF-8" standalone="no"?>
<svg
   width="50"
   height="50"
   viewBox="0 0 1.5 1.5"
   fill="none"
   stroke="#003855"
   version="1.1"
   id="svg2"
   sodipodi:docname="question.svg"
   inkscape:version="1.4.2 (f4327f4, 2025-05-13)"
   xmlns:inkscape="http://www.inkscape.org/namespaces/inkscape"
   xmlns:sodipodi="http://sodipodi.sourceforge.net/DTD/sodipodi-0.dtd"
   xmlns="http://www.w3.org/2000/svg"
   xmlns:svg="http://www.w3.org/2000/svg">
  <defs
     id="defs2" />
  <sodipodi:namedview
     id="namedview2"
     pagecolor="#505050"
     bordercolor="#eeeeee"
     borderopacity="1"
     inkscape:showpageshadow="0"
     inkscape:pageopacity="0"
     inkscape:pagecheckerboard="0"
     inkscape:deskcolor="#505050"
     inkscape:zoom="8.6479159"
     inkscape:cx="12.488558"
     inkscape:cy="40.645631"
     inkscape:window-width="1920"
     inkscape:window-height="1058"
     inkscape:window-x="-6"
     inkscape:window-y="-6"
     inkscape:window-maximized="1"
     inkscape:current-layer="svg2" />
  <g
     id="SVGRepo_bgCarrier"
     stroke-width="0" />
  <g
     id="SVGRepo_tracerCarrier"
     stroke-linecap="round"
     stroke-linejoin="round" />
  <g
     id="SVGRepo_iconCarrier"
     transform="matrix(0.07456116,0,0,0.07456116,-0.14455448,-0.14442467)">
    <path
       d="M 16.07,4.92998 C 15.2658,4.12416 14.2405,3.57519 13.124,3.35264 12.0076,3.13009 10.8501,3.24397 9.79845,3.67986 8.74676,4.11574 7.84812,4.85401 7.21641,5.80112 6.58471,6.74823 6.24837,7.86154 6.25001,8.99998 c 0,0.19892 0.07901,0.38968 0.21967,0.53033 0.14065,0.14066 0.33141,0.21967 0.53033,0.21967 0.19891,0 0.38967,-0.07901 0.53033,-0.21967 C 7.67099,9.38966 7.75001,9.1989 7.75001,8.99998 7.74803,8.15659 7.99644,7.33158 8.46378,6.6295 8.93111,5.92742 9.59633,5.37985 10.3752,5.05618 11.154,4.73251 12.0113,4.64731 12.8386,4.81136 c 0.8273,0.16406 1.5873,0.56999 2.1837,1.16636 0.5963,0.59637 1.0023,1.35635 1.1663,2.18364 0.1641,0.82729 0.0789,1.68466 -0.2448,2.46344 -0.3237,0.7789 -0.8712,1.4441 -1.5733,1.9114 C 13.6684,13.0035 12.8434,13.252 12,13.25 11.8019,13.2526 11.6126,13.3324 11.4725,13.4725 11.3324,13.6126 11.2526,13.8019 11.25,14 v 2 c 0,0.1989 0.079,0.3897 0.2197,0.5303 0.1406,0.1407 0.3314,0.2197 0.5303,0.2197 0.1989,0 0.3897,-0.079 0.5303,-0.2197 C 12.671,16.3897 12.75,16.1989 12.75,16 v -1.3 c 1.063,-0.1424 2.0652,-0.5788 2.8936,-1.26 0.8284,-0.6813 1.4502,-1.5802 1.7953,-2.5958 C 17.784,9.82874 17.8387,8.73706 17.5968,7.69214 17.355,6.64723 16.8262,5.6906 16.07,4.92998 Z"
       fill="#003855"
       id="path1" />
    <path
       d="m 12,20.75 c 0.6904,0 1.25,-0.5596 1.25,-1.25 0,-0.6904 -0.5596,-1.25 -1.25,-1.25 -0.6904,0 -1.25,0.5596 -1.25,1.25 0,0.6904 0.5596,1.25 1.25,1.25 z"
       fill="#003855"
       id="path2" />
  </g>
</svg>

<!DOCTYPE svg PUBLIC "-//W3C//DTD SVG 1.1//EN" "http://www.w3.org/Graphics/SVG/1.1/DTD/svg11.dtd">

<svg width="800px" height="800px" viewBox="0 0 24 24" fill="none" xmlns="http://www.w3.org/2000/svg" stroke="#003855">

<g id="SVGRepo_bgCarrier" stroke-width="0"/>

<g id="SVGRepo_tracerCarrier" stroke-linecap="round" stroke-linejoin="round"/>

<g id="SVGRepo_iconCarrier"> <path d="M16.07 4.92998C15.2658 4.12416 14.2405 3.57519 13.124 3.35264C12.0076 3.13009 10.8501 3.24397 9.79845 3.67986C8.74676 4.11574 7.84812 4.85401 7.21641 5.80112C6.58471 6.74823 6.24837 7.86154 6.25001 8.99998C6.25001 9.1989 6.32902 9.38966 6.46968 9.53031C6.61033 9.67097 6.80109 9.74998 7.00001 9.74998C7.19892 9.74998 7.38968 9.67097 7.53034 9.53031C7.67099 9.38966 7.75001 9.1989 7.75001 8.99998C7.74803 8.15659 7.99644 7.33158 8.46378 6.6295C8.93111 5.92742 9.59633 5.37985 10.3752 5.05618C11.154 4.73251 12.0113 4.64731 12.8386 4.81136C13.6659 4.97542 14.4259 5.38135 15.0223 5.97772C15.6186 6.57409 16.0246 7.33407 16.1886 8.16136C16.3527 8.98865 16.2675 9.84602 15.9438 10.6248C15.6201 11.4037 15.0726 12.0689 14.3705 12.5362C13.6684 13.0035 12.8434 13.252 12 13.25C11.8019 13.2526 11.6126 13.3324 11.4725 13.4725C11.3324 13.6126 11.2526 13.8019 11.25 14V16C11.25 16.1989 11.329 16.3897 11.4697 16.5303C11.6103 16.671 11.8011 16.75 12 16.75C12.1989 16.75 12.3897 16.671 12.5303 16.5303C12.671 16.3897 12.75 16.1989 12.75 16V14.7C13.813 14.5576 14.8152 14.1212 15.6436 13.44C16.472 12.7587 17.0938 11.8598 17.4389 10.8442C17.784 9.82874 17.8387 8.73706 17.5968 7.69214C17.355 6.64723 16.8262 5.6906 16.07 4.92998Z" fill="#003855"/> <path d="M12 20.75C12.6904 20.75 13.25 20.1904 13.25 19.5C13.25 18.8096 12.6904 18.25 12 18.25C11.3096 18.25 10.75 18.8096 10.75 19.5C10.75 20.1904 11.3096 20.75 12 20.75Z" fill="#003855"/> </g>

</svg>
